X:1
T:JOHN MACFADYEN OF MELFORT  "macfad.bmw"
M:C|
L:1/8
Q:80
C:JOHN MACCOLL
S:MARCH
K:HP
a3/4f/4|
{gef}e3/2A/2{gef}e3/4d/4{gcd}c3/4B/4|
{gAGAG}A3/4a/4g/4a3/4f/4a3/4{ef}e3/4c/4|  !
{g}A{GdGe}A/2B/2{g}c/4e3/4{g}f3/4e/4|
{gcd}c{g}B{GdGe}Ba3/4f/4|
{gef}e3/2A/2{gef}e3/4d/4{gcd}c3/4B/4|  !
{gAGAG}A3/4a/4g/4a3/4f/4a3/4{ef}e3/4c/4|
{g}A{GdGe}A/2{d}c/2{g}B/4{g}c3/4{g}f3/4e/4|
{gcd}c{e}A{GAG}A:|  !
{g}c3/4d/4|
{g}e3/4f/4{gef}e3/4c/4{gAGAG}Aa/2g/2|
{a}f/4a3/4{fg}f3/4e/4{Gdc}d{g}c3/4d/4|  !
{g}e3/4f/4{gef}e3/4c/4{g}A3/4{d}c/4{g}f3/4e/4|
{gcd}c{g}B{GdGe}B{g}c3/4d/4|1
{g}e3/4f/4{gef}e3/4c/4{gAGAG}Aa/2g/2|  !
{a}f/4a3/4{fg}f3/4e/4{Gdc}d{g}c3/4d/4|
{gef}e3/4A/4{gde}d3/4c/4{gBG}B3/4{d}c/4{g}f3/4e/4|
{gcd}c{e}A{GAG}A{g}c3/4d/4:|2  !
{g}c/4e3/4{g}d/4f3/4{g}c/4e3/4{g}B3/4{d}c/4|
{g}A3/4a/4g/4a3/4f/4a3/4{ef}e3/4c/4|
{g}A{GdGe}A/2{d}c/2{g}B3/4{d}c/4{g}f3/4e/4|  !
{gcd}c{e}A{GAG}A|]
{ag}a|
{AGAG}A{d}c/2e/2{gAGAG}A{gcd}c|  !
{gef}e3/4A/4a3/4e/4{g}f3/4e/4{g}c/4{d}A3/4|
{gef}e3/4c/4{g}B/4{d}c3/4{g}A3/4{d}c/4{g}f3/4e/4|
{gcd}c{g}B{GdGe}B{ag}a|  !
{AGAG}A{d}c/2e/2{gAGAG}A{gcd}c|
{gef}e3/4A/4a3/4e/4{g}f3/4e/4{g}c/4{d}A3/4|
{g}c/4e3/4{g}A3/4{d}c/4{g}B3/4{d}c/4{g}f3/4e/4|  !
{gcd}c{e}A{GAG}A:|
{g}f3/4g/4|
a3/4e/4{g}c/4e3/4{g}A3/4{d}c/4{g}B/4{d}c3/8|  !
{gef}e3/4A/4a3/4e/4{g}f3/4e/4{g}c/4{d}A3/4|
a3/4e/4{g}c/4e3/4{g}A3/4{d}c/4{g}f3/4e/4|
{gcd}c{g}B{GdGe}B{g}f3/4g/4|  !
a3/4e/4{g}c/4e3/4{g}A3/4{d}c/4{g}B/4{d}c3/4|
{gef}e3/4A/4a3/4e/4{g}f3/4e/4{g}c/4{d}A3/4|
{g}c/4e3/4{g}A3/4{d}c/4{g}B3/4{d}c/4{g}f3/4e/4|  !
{gcd}c{e}A{GAG}A{g}f3/4g/4|
a3/4e/4{g}c/4e3/4{g}A3/4c/4{g}B/4{d}c/4|
{gef}e3/4A/4a3/4e/4{g}f3/4e/4{g}c/4{d}A3/4|  !
a3/4c/4{g}A/4e3/4{g}A3/4{d}c/4{g}f3/4e/4|
{gcd}c{g}B{GdGe}B{ag}a|
A3/4{d}c/4B/4{d}c3/4{gef}e3/4A/4{d}c/4e3/4|  !
{gfg}f3/4e/4a3/4f/4{gef}e3/4c/4{g}B/4{d}A3/4|
{g}c/4e3/4{g}A3/4{d}c/4{g}B3/4{d}c/4{g}f3/4e/4|
{gcd}c{e}A{GAG}A|]  !

